X:1
T: The Four Stringer
C:
R:Strathspey
Q: 128
K:A
M:4/4
L:1/16
|:E2|A,3C E3C D3F B3A|G3B e3d c3e a3c|def2 Bcd2 cde2 ABc2|dcB2 cBA2 ((3G2F2E2) ((3D2C2B2,) |
A,3C E3C D3F B3A|G3B e3d c3e a3c|def2 Bcd2 cde2 ABc2|((3E2G2B2) e3d cA3 A2:|
|:g2|a4 e3d cA3 A3E|((3A2c2e2) a3e cA3 A3^a|b4 f3e dB3 B3F|((3B2e2f2) b3a ge3 e3g|
a4 e3d cA3 A3E|((3A2c2e2) ((3a2e2d2) cA3 A3G|F3A d3f E3A ce3|((3E2G2B2) e3d cA3 A2:|
